X: 35585
T: S McGee Buys The Farm
R: jig
M: 6/8
K: Dminor
|:d2 cA FD|B,FA edc|cde fde|cdA GFE|
DdD cDA|B,FA edc|cde dcA|D/F/ GA GFD|
d2 cA FD|B,FA edc|cde fge|fce dcA|
GFD dcA|B,FA edc|cde dcA|D/F/ GA GFD:|
K:D
G,DB Bcd|BAF aAb|aef e2d|cde fae|
fde cdB|z cd BAF|AFB AFD|CDA edc|
G,DB Bcd|BAF aAb|aef e2d|cde fae|
fde cdB|z cd BAF|AFB AFD|CDA edc:|

